X: 105204
Q:"Reel."
M: C
L: 1/8
K: A
uf |\
e2(Ac/d/) ecAa | e2(AB/c/) dB=Gf |\
e2(Ac/d/) eAcA | (BE) (3(EBe) dB =G ::\
cA (3(cde) (cA) AB | x4 "^2nd"=gx x2 & cA (3(cde) (dB)=GB |\
cA (3(cde) (cA)cA | (BE) (3(EBe) dB=G :|\
"_Fine."HA2 ||



